X: 30186
T: Old Flail, The
R: jig
M: 6/8
K: Gmajor
DEG GAB|deg gab|age ege|dBG AGE|
DEG GAB|deg gab|age ege|dBG A3:|
ega aga|ega ega|deg ged|ged BAG|
DEG GAB|d2g gab|age ege|dBG A3:|

